assets/img/components/radiobutton.svg

<svg width="273" height="144" viewBox="0 0 273 144" fill="none" xmlns="http://www.w3.org/2000/svg">
<rect x="0.395508" y="0.5" width="272" height="143" rx="8" fill="#EFF6FB"/>
<mask id="path-2-inside-1_16_35" fill="white">
<path d="M45.6455 72.0001C45.6455 64.9309 51.3762 59.2002 58.4454 59.2002V59.2002C65.5146 59.2002 71.2454 64.9309 71.2454 72.0001V72.0001C71.2454 79.0693 65.5146 84.8 58.4454 84.8V84.8C51.3762 84.8 45.6455 79.0693 45.6455 72.0001V72.0001Z"/>
</mask>
<path d="M45.6455 72.0001C45.6455 64.9309 51.3762 59.2002 58.4454 59.2002V59.2002C65.5146 59.2002 71.2454 64.9309 71.2454 72.0001V72.0001C71.2454 79.0693 65.5146 84.8 58.4454 84.8V84.8C51.3762 84.8 45.6455 79.0693 45.6455 72.0001V72.0001Z" fill="white"/>
<path d="M58.4454 84.8V82.6667C52.5544 82.6667 47.7788 77.8911 47.7788 72.0001H45.6455H43.5122C43.5122 80.2475 50.198 86.9334 58.4454 86.9334V84.8ZM71.2454 72.0001H69.112C69.112 77.8911 64.3364 82.6667 58.4454 82.6667V84.8V86.9334C66.6928 86.9334 73.3787 80.2475 73.3787 72.0001H71.2454ZM58.4454 59.2002V61.3335C64.3364 61.3335 69.112 66.1091 69.112 72.0001H71.2454H73.3787C73.3787 63.7527 66.6928 57.0669 58.4454 57.0669V59.2002ZM58.4454 59.2002V57.0669C50.198 57.0669 43.5122 63.7527 43.5122 72.0001H45.6455H47.7788C47.7788 66.1091 52.5544 61.3335 58.4454 61.3335V59.2002Z" fill="#62666A" mask="url(#path-2-inside-1_16_35)"/>
<circle cx="58.4456" cy="72.0001" r="7.46662" fill="#154973"/>
<mask id="path-5-inside-2_16_35" fill="white">
<path d="M45.6455 31.4581C45.6455 24.3889 51.3762 18.6582 58.4454 18.6582V18.6582C65.5146 18.6582 71.2454 24.3889 71.2454 31.4581V31.4581C71.2454 38.5273 65.5146 44.2581 58.4454 44.2581V44.2581C51.3762 44.2581 45.6455 38.5273 45.6455 31.4581V31.4581Z"/>
</mask>
<path d="M45.6455 31.4581C45.6455 24.3889 51.3762 18.6582 58.4454 18.6582V18.6582C65.5146 18.6582 71.2454 24.3889 71.2454 31.4581V31.4581C71.2454 38.5273 65.5146 44.2581 58.4454 44.2581V44.2581C51.3762 44.2581 45.6455 38.5273 45.6455 31.4581V31.4581Z" fill="white"/>
<path d="M58.4454 44.2581V42.1247C52.5544 42.1247 47.7788 37.3491 47.7788 31.4581H45.6455H43.5122C43.5122 39.7055 50.198 46.3914 58.4454 46.3914V44.2581ZM71.2454 31.4581H69.112C69.112 37.3491 64.3364 42.1247 58.4454 42.1247V44.2581V46.3914C66.6928 46.3914 73.3787 39.7055 73.3787 31.4581H71.2454ZM58.4454 18.6582V20.7915C64.3364 20.7915 69.112 25.5671 69.112 31.4581H71.2454H73.3787C73.3787 23.2107 66.6928 16.5249 58.4454 16.5249V18.6582ZM58.4454 18.6582V16.5249C50.198 16.5249 43.5122 23.2107 43.5122 31.4581H45.6455H47.7788C47.7788 25.5671 52.5544 20.7915 58.4454 20.7915V18.6582Z" fill="#62666A" mask="url(#path-5-inside-2_16_35)"/>
<mask id="path-7-inside-3_16_35" fill="white">
<path d="M45.6455 113.6C45.6455 106.531 51.3762 100.8 58.4454 100.8V100.8C65.5146 100.8 71.2454 106.531 71.2454 113.6V113.6C71.2454 120.669 65.5146 126.4 58.4454 126.4V126.4C51.3762 126.4 45.6455 120.669 45.6455 113.6V113.6Z"/>
</mask>
<path d="M45.6455 113.6C45.6455 106.531 51.3762 100.8 58.4454 100.8V100.8C65.5146 100.8 71.2454 106.531 71.2454 113.6V113.6C71.2454 120.669 65.5146 126.4 58.4454 126.4V126.4C51.3762 126.4 45.6455 120.669 45.6455 113.6V113.6Z" fill="white"/>
<path d="M58.4454 126.4V124.266C52.5544 124.266 47.7788 119.491 47.7788 113.6H45.6455H43.5122C43.5122 121.847 50.198 128.533 58.4454 128.533V126.4ZM71.2454 113.6H69.112C69.112 119.491 64.3364 124.266 58.4454 124.266V126.4V128.533C66.6928 128.533 73.3787 121.847 73.3787 113.6H71.2454ZM58.4454 100.8V102.933C64.3364 102.933 69.112 107.709 69.112 113.6H71.2454H73.3787C73.3787 105.352 66.6928 98.6665 58.4454 98.6665V100.8ZM58.4454 100.8V98.6665C50.198 98.6665 43.5122 105.352 43.5122 113.6H45.6455H47.7788C47.7788 107.709 52.5544 102.933 58.4454 102.933V100.8Z" fill="#62666A" mask="url(#path-7-inside-3_16_35)"/>
<path d="M85.1455 31.458C85.1455 29.8012 86.4887 28.458 88.1455 28.458H198.146C199.802 28.458 201.146 29.8012 201.146 31.458V31.458C201.146 33.1149 199.802 34.458 198.146 34.458H88.1455C86.4887 34.458 85.1455 33.1149 85.1455 31.458V31.458Z" fill="#D0D0CE"/>
<path d="M85.1777 72C85.1777 70.3431 86.5209 69 88.1777 69H114.178C115.835 69 117.178 70.3431 117.178 72V72C117.178 73.6569 115.835 75 114.178 75H88.1777C86.5209 75 85.1777 73.6569 85.1777 72V72Z" fill="#0E324F"/>
<path d="M125.146 72C125.146 70.3431 126.489 69 128.146 69H186.146C187.802 69 189.146 70.3431 189.146 72V72C189.146 73.6569 187.802 75 186.146 75H128.146C126.489 75 125.146 73.6569 125.146 72V72Z" fill="#0E324F"/>
<path d="M86.1455 113.6C86.1455 111.943 87.4887 110.6 89.1455 110.6H125.146C126.802 110.6 128.146 111.943 128.146 113.6V113.6C128.146 115.257 126.802 116.6 125.146 116.6H89.1455C87.4887 116.6 86.1455 115.257 86.1455 113.6V113.6Z" fill="#D0D0CE"/>
<path d="M136.146 113.6C136.146 111.943 137.489 110.6 139.146 110.6H205.146C206.802 110.6 208.146 111.943 208.146 113.6V113.6C208.146 115.257 206.802 116.6 205.146 116.6H139.146C137.489 116.6 136.146 115.257 136.146 113.6V113.6Z" fill="#D0D0CE"/>
</svg>

<svg xmlns="http://www.w3.org/2000/svg" width="273" height="144" fill="none" viewBox="0 0 273 144"><rect width="272" height="143" x=".396" y=".5" fill="#eff6fb" rx="8"/><mask id="a" fill="#fff"><path d="M45.646 72c0-7.07 5.73-12.8 12.8-12.8 7.069 0 12.8 5.73 12.8 12.8s-5.731 12.8-12.8 12.8-12.8-5.73-12.8-12.8"/></mask><path fill="#fff" d="M45.646 72c0-7.07 5.73-12.8 12.8-12.8 7.069 0 12.8 5.73 12.8 12.8s-5.731 12.8-12.8 12.8-12.8-5.73-12.8-12.8"/><path fill="#62666a" d="M58.445 84.8v-2.133c-5.89 0-10.666-4.776-10.666-10.667h-4.267c0 8.248 6.686 14.933 14.933 14.933zm12.8-12.8h-2.133c0 5.891-4.776 10.667-10.667 10.667v4.266c8.248 0 14.934-6.686 14.934-14.933zm-12.8-12.8v2.133c5.891 0 10.667 4.776 10.667 10.667h4.267c0-8.247-6.686-14.933-14.934-14.933zm0 0v-2.133c-8.247 0-14.933 6.686-14.933 14.933h4.267c0-5.89 4.775-10.666 10.666-10.666z" mask="url(#a)"/><circle cx="58.446" cy="72" r="7.467" fill="#154973"/><mask id="b" fill="#fff"><path d="M45.646 31.458c0-7.07 5.73-12.8 12.8-12.8 7.069 0 12.8 5.73 12.8 12.8s-5.731 12.8-12.8 12.8-12.8-5.73-12.8-12.8"/></mask><path fill="#fff" d="M45.646 31.458c0-7.07 5.73-12.8 12.8-12.8 7.069 0 12.8 5.73 12.8 12.8s-5.731 12.8-12.8 12.8-12.8-5.73-12.8-12.8"/><path fill="#62666a" d="M58.445 44.258v-2.133c-5.89 0-10.666-4.776-10.666-10.667h-4.267c0 8.248 6.686 14.933 14.933 14.933zm12.8-12.8h-2.133c0 5.891-4.776 10.667-10.667 10.667v4.266c8.248 0 14.934-6.685 14.934-14.933zm-12.8-12.8v2.133c5.891 0 10.667 4.776 10.667 10.667h4.267c0-8.247-6.686-14.933-14.934-14.933zm0 0v-2.133c-8.247 0-14.933 6.686-14.933 14.933h4.267c0-5.89 4.775-10.666 10.666-10.666z" mask="url(#b)"/><mask id="c" fill="#fff"><path d="M45.646 113.6c0-7.069 5.73-12.8 12.8-12.8 7.069 0 12.8 5.731 12.8 12.8s-5.731 12.8-12.8 12.8-12.8-5.731-12.8-12.8"/></mask><path fill="#fff" d="M45.646 113.6c0-7.069 5.73-12.8 12.8-12.8 7.069 0 12.8 5.731 12.8 12.8s-5.731 12.8-12.8 12.8-12.8-5.731-12.8-12.8"/><path fill="#62666a" d="M58.445 126.4v-2.134c-5.89 0-10.666-4.775-10.666-10.666h-4.267c0 8.247 6.686 14.933 14.933 14.933zm12.8-12.8h-2.133c0 5.891-4.776 10.666-10.667 10.666v4.267c8.248 0 14.934-6.686 14.934-14.933zm-12.8-12.8v2.133c5.891 0 10.667 4.776 10.667 10.667h4.267c0-8.248-6.686-14.933-14.934-14.933zm0 0v-2.133c-8.247 0-14.933 6.685-14.933 14.933h4.267c0-5.891 4.775-10.667 10.666-10.667z" mask="url(#c)"/><path fill="#d0d0ce" d="M85.146 31.458a3 3 0 0 1 3-3h110a3 3 0 0 1 0 6h-110a3 3 0 0 1-3-3"/><path fill="#0e324f" d="M85.178 72a3 3 0 0 1 3-3h26a3 3 0 1 1 0 6h-26a3 3 0 0 1-3-3M125.146 72a3 3 0 0 1 3-3h58a3 3 0 0 1 0 6h-58a3 3 0 0 1-3-3"/><path fill="#d0d0ce" d="M86.146 113.6a3 3 0 0 1 3-3h36a3 3 0 0 1 0 6h-36a3 3 0 0 1-3-3M136.146 113.6a3 3 0 0 1 3-3h66a3 3 0 0 1 0 6h-66a3 3 0 0 1-3-3"/></svg>
